icons/modern/reminder-ribbon.svg

<svg width="32" height="32" viewBox="0 0 32 32" fill="none" xmlns="http://www.w3.org/2000/svg">
<g filter="url(#filter0_i_18_1305)">
<path d="M19.2347 8.22925C16.8222 7.37925 13.7191 7.87508 12.4691 8.22925C12.1931 8.13029 11.616 7.73862 11.516 6.96362C11.391 5.99487 10.7503 2.83863 15.9066 2.66675C20.0316 2.52925 21.4274 4.71363 21.6097 5.823L19.2347 8.22925Z" fill="url(#paint0_radial_18_1305)"/>
<path d="M19.2347 8.22925C16.8222 7.37925 13.7191 7.87508 12.4691 8.22925C12.1931 8.13029 11.616 7.73862 11.516 6.96362C11.391 5.99487 10.7503 2.83863 15.9066 2.66675C20.0316 2.52925 21.4274 4.71363 21.6097 5.823L19.2347 8.22925Z" fill="url(#paint1_radial_18_1305)"/>
</g>
<g filter="url(#filter1_i_18_1305)">
<path d="M19.4983 14.5052C22.46 17.308 26.4017 20.9904 29.8902 24.0901C30.0966 24.2735 30.1142 24.5885 29.9307 24.7948C27.7659 27.2287 25.9384 29.1498 25.2154 29.9015C25.0301 30.0942 24.7273 30.1057 24.529 29.9265C21.5443 27.23 17.4602 23.1151 14.0823 19.6203L19.4983 14.5052Z" fill="#FFC444"/>
<path d="M19.4983 14.5052C22.46 17.308 26.4017 20.9904 29.8902 24.0901C30.0966 24.2735 30.1142 24.5885 29.9307 24.7948C27.7659 27.2287 25.9384 29.1498 25.2154 29.9015C25.0301 30.0942 24.7273 30.1057 24.529 29.9265C21.5443 27.23 17.4602 23.1151 14.0823 19.6203L19.4983 14.5052Z" fill="url(#paint2_linear_18_1305)"/>
</g>
<path d="M19.4983 14.5052C22.46 17.308 26.4017 20.9904 29.8902 24.0901C30.0966 24.2735 30.1142 24.5885 29.9307 24.7948C27.7659 27.2287 25.9384 29.1498 25.2154 29.9015C25.0301 30.0942 24.7273 30.1057 24.529 29.9265C21.5443 27.23 17.4602 23.1151 14.0823 19.6203L19.4983 14.5052Z" fill="url(#paint3_linear_18_1305)"/>
<path d="M19.4983 14.5052C22.46 17.308 26.4017 20.9904 29.8902 24.0901C30.0966 24.2735 30.1142 24.5885 29.9307 24.7948C27.7659 27.2287 25.9384 29.1498 25.2154 29.9015C25.0301 30.0942 24.7273 30.1057 24.529 29.9265C21.5443 27.23 17.4602 23.1151 14.0823 19.6203L19.4983 14.5052Z" fill="url(#paint4_linear_18_1305)"/>
<path d="M18.4835 13.5428C16.3477 11.5137 14.928 10.1402 14.928 10.1402C13.7284 8.96454 11.6094 6.74487 11.8901 5.24473C12.3016 3.04568 14.9027 3.05733 16.1127 3.06275C16.1692 3.06301 16.2227 3.06325 16.2728 3.06325V1.90894C14.3129 1.90894 12.6413 2.19245 10.7547 3.56629C7.67956 5.80565 5.55303 10.624 10.2033 15.5582C11.0547 16.4615 12.0923 17.5532 13.237 18.7435C14.9751 17.0191 16.7832 15.2264 18.4835 13.5428Z" fill="url(#paint5_radial_18_1305)"/>
<path d="M18.4835 13.5428C16.3477 11.5137 14.928 10.1402 14.928 10.1402C13.7284 8.96454 11.6094 6.74487 11.8901 5.24473C12.3016 3.04568 14.9027 3.05733 16.1127 3.06275C16.1692 3.06301 16.2227 3.06325 16.2728 3.06325V1.90894C14.3129 1.90894 12.6413 2.19245 10.7547 3.56629C7.67956 5.80565 5.55303 10.624 10.2033 15.5582C11.0547 16.4615 12.0923 17.5532 13.237 18.7435C14.9751 17.0191 16.7832 15.2264 18.4835 13.5428Z" fill="url(#paint6_linear_18_1305)"/>
<path d="M18.4835 13.5428C16.3477 11.5137 14.928 10.1402 14.928 10.1402C13.7284 8.96454 11.6094 6.74487 11.8901 5.24473C12.3016 3.04568 14.9027 3.05733 16.1127 3.06275C16.1692 3.06301 16.2227 3.06325 16.2728 3.06325V1.90894C14.3129 1.90894 12.6413 2.19245 10.7547 3.56629C7.67956 5.80565 5.55303 10.624 10.2033 15.5582C11.0547 16.4615 12.0923 17.5532 13.237 18.7435C14.9751 17.0191 16.7832 15.2264 18.4835 13.5428Z" fill="url(#paint7_linear_18_1305)"/>
<path d="M18.4835 13.5428C16.3477 11.5137 14.928 10.1402 14.928 10.1402C13.7284 8.96454 11.6094 6.74487 11.8901 5.24473C12.3016 3.04568 14.9027 3.05733 16.1127 3.06275C16.1692 3.06301 16.2227 3.06325 16.2728 3.06325V1.90894C14.3129 1.90894 12.6413 2.19245 10.7547 3.56629C7.67956 5.80565 5.55303 10.624 10.2033 15.5582C11.0547 16.4615 12.0923 17.5532 13.237 18.7435C14.9751 17.0191 16.7832 15.2264 18.4835 13.5428Z" fill="url(#paint8_radial_18_1305)"/>
<g filter="url(#filter2_i_18_1305)">
<path d="M16.9308 10.064L1.98863 23.816C1.78712 24.0014 1.77231 24.3145 1.9554 24.5182L6.61767 29.7041C6.80753 29.9153 7.13473 29.9263 7.33834 29.7283C11.3758 25.8031 18.262 19.2123 21.8262 15.5543C26.4554 10.8033 24.35 5.80178 21.2748 3.56242C19.3882 2.18858 17.8949 1.90894 16.2729 1.90894V3.05934C17.3952 3.05934 20.0908 3.59842 20.4137 5.14407C20.7155 6.58893 18.1304 8.88827 16.9308 10.064Z" fill="#FFD24B"/>
<path d="M16.9308 10.064L1.98863 23.816C1.78712 24.0014 1.77231 24.3145 1.9554 24.5182L6.61767 29.7041C6.80753 29.9153 7.13473 29.9263 7.33834 29.7283C11.3758 25.8031 18.262 19.2123 21.8262 15.5543C26.4554 10.8033 24.35 5.80178 21.2748 3.56242C19.3882 2.18858 17.8949 1.90894 16.2729 1.90894V3.05934C17.3952 3.05934 20.0908 3.59842 20.4137 5.14407C20.7155 6.58893 18.1304 8.88827 16.9308 10.064Z" fill="url(#paint9_radial_18_1305)"/>
<path d="M16.9308 10.064L1.98863 23.816C1.78712 24.0014 1.77231 24.3145 1.9554 24.5182L6.61767 29.7041C6.80753 29.9153 7.13473 29.9263 7.33834 29.7283C11.3758 25.8031 18.262 19.2123 21.8262 15.5543C26.4554 10.8033 24.35 5.80178 21.2748 3.56242C19.3882 2.18858 17.8949 1.90894 16.2729 1.90894V3.05934C17.3952 3.05934 20.0908 3.59842 20.4137 5.14407C20.7155 6.58893 18.1304 8.88827 16.9308 10.064Z" fill="url(#paint10_linear_18_1305)"/>
</g>
<path d="M16.9308 10.064L1.98863 23.816C1.78712 24.0014 1.77231 24.3145 1.9554 24.5182L6.61767 29.7041C6.80753 29.9153 7.13473 29.9263 7.33834 29.7283C11.3758 25.8031 18.262 19.2123 21.8262 15.5543C26.4554 10.8033 24.35 5.80178 21.2748 3.56242C19.3882 2.18858 17.8949 1.90894 16.2729 1.90894V3.05934C17.3952 3.05934 20.0908 3.59842 20.4137 5.14407C20.7155 6.58893 18.1304 8.88827 16.9308 10.064Z" fill="url(#paint11_radial_18_1305)"/>
<path d="M16.9308 10.064L1.98863 23.816C1.78712 24.0014 1.77231 24.3145 1.9554 24.5182L6.61767 29.7041C6.80753 29.9153 7.13473 29.9263 7.33834 29.7283C11.3758 25.8031 18.262 19.2123 21.8262 15.5543C26.4554 10.8033 24.35 5.80178 21.2748 3.56242C19.3882 2.18858 17.8949 1.90894 16.2729 1.90894V3.05934C17.3952 3.05934 20.0908 3.59842 20.4137 5.14407C20.7155 6.58893 18.1304 8.88827 16.9308 10.064Z" fill="url(#paint12_radial_18_1305)"/>
<g filter="url(#filter3_f_18_1305)">
<path d="M16.6563 2.6355C15.6563 2.47925 12.6545 2.687 11.774 3.96257C10.6849 5.54022 11.2547 7.30412 13.6705 9.85545" stroke="url(#paint13_radial_18_1305)" stroke-width="0.5" stroke-linecap="round"/>
</g>
<g filter="url(#filter4_f_18_1305)">
<path d="M20.8204 3.93237C20.031 2.96014 18.5439 2.55533 18.0067 2.44562L17.7684 3.08116C18.2564 3.18708 19.4305 3.54816 20.0625 4.24487C21.0456 5.32851 20.1289 6.80392 19.6485 7.41675C20.8829 6.34644 21.63 4.92961 20.8204 3.93237Z" fill="url(#paint14_linear_18_1305)"/>
</g>
<defs>
<filter id="filter0_i_18_1305" x="11.4241" y="2.51055" width="10.1857" height="5.7187" filterUnits="userSpaceOnUse" color-interpolation-filters="sRGB">
<feFlood flood-opacity="0" result="BackgroundImageFix"/>
<feBlend mode="normal" in="SourceGraphic" in2="BackgroundImageFix" result="shape"/>
<feColorMatrix in="SourceAlpha" type="matrix" values="0 0 0 0 0 0 0 0 0 0 0 0 0 0 0 0 0 0 127 0" result="hardAlpha"/>
<feOffset dy="-0.15"/>
<feGaussianBlur stdDeviation="0.125"/>
<feComposite in2="hardAlpha" operator="arithmetic" k2="-1" k3="1"/>
<feColorMatrix type="matrix" values="0 0 0 0 0.847059 0 0 0 0 0.52549 0 0 0 0 0.4 0 0 0 1 0"/>
<feBlend mode="normal" in2="shape" result="effect1_innerShadow_18_1305"/>
</filter>
<filter id="filter1_i_18_1305" x="14.0823" y="14.5052" width="16.3752" height="15.6486" filterUnits="userSpaceOnUse" color-interpolation-filters="sRGB">
<feFlood flood-opacity="0" result="BackgroundImageFix"/>
<feBlend mode="normal" in="SourceGraphic" in2="BackgroundImageFix" result="shape"/>
<feColorMatrix in="SourceAlpha" type="matrix" values="0 0 0 0 0 0 0 0 0 0 0 0 0 0 0 0 0 0 127 0" result="hardAlpha"/>
<feOffset dx="0.4" dy="0.1"/>
<feGaussianBlur stdDeviation="0.375"/>
<feComposite in2="hardAlpha" operator="arithmetic" k2="-1" k3="1"/>
<feColorMatrix type="matrix" values="0 0 0 0 0.898039 0 0 0 0 0.521569 0 0 0 0 0.352941 0 0 0 1 0"/>
<feBlend mode="normal" in2="shape" result="effect1_innerShadow_18_1305"/>
</filter>
<filter id="filter2_i_18_1305" x="1.82727" y="1.70894" width="22.8949" height="28.161" filterUnits="userSpaceOnUse" color-interpolation-filters="sRGB">
<feFlood flood-opacity="0" result="BackgroundImageFix"/>
<feBlend mode="normal" in="SourceGraphic" in2="BackgroundImageFix" result="shape"/>
<feColorMatrix in="SourceAlpha" type="matrix" values="0 0 0 0 0 0 0 0 0 0 0 0 0 0 0 0 0 0 127 0" result="hardAlpha"/>
<feOffset dx="0.2" dy="-0.2"/>
<feGaussianBlur stdDeviation="0.25"/>
<feComposite in2="hardAlpha" operator="arithmetic" k2="-1" k3="1"/>
<feColorMatrix type="matrix" values="0 0 0 0 0.866667 0 0 0 0 0.517647 0 0 0 0 0.309804 0 0 0 1 0"/>
<feBlend mode="normal" in2="shape" result="effect1_innerShadow_18_1305"/>
</filter>
<filter id="filter3_f_18_1305" x="10.4941" y="1.84061" width="6.91211" height="8.76483" filterUnits="userSpaceOnUse" color-interpolation-filters="sRGB">
<feFlood flood-opacity="0" result="BackgroundImageFix"/>
<feBlend mode="normal" in="SourceGraphic" in2="BackgroundImageFix" result="shape"/>
<feGaussianBlur stdDeviation="0.25" result="effect1_foregroundBlur_18_1305"/>
</filter>
<filter id="filter4_f_18_1305" x="17.4684" y="2.14562" width="3.98965" height="5.57113" filterUnits="userSpaceOnUse" color-interpolation-filters="sRGB">
<feFlood flood-opacity="0" result="BackgroundImageFix"/>
<feBlend mode="normal" in="SourceGraphic" in2="BackgroundImageFix" result="shape"/>
<feGaussianBlur stdDeviation="0.15" result="effect1_foregroundBlur_18_1305"/>
</filter>
<radialGradient id="paint0_radial_18_1305" cx="0" cy="0" r="1" gradientUnits="userSpaceOnUse" gradientTransform="translate(11.4241 6.64956) rotate(0.300378) scale(8.61353 4.38891)">
<stop stop-color="#FAAE36"/>
<stop offset="1" stop-color="#CF7C39"/>
</radialGradient>
<radialGradient id="paint1_radial_18_1305" cx="0" cy="0" r="1" gradientUnits="userSpaceOnUse" gradientTransform="translate(16.1992 8.63643) rotate(-90) scale(5.55422 9.43767)">
<stop offset="0.800981" stop-color="#D67B44" stop-opacity="0"/>
<stop offset="1" stop-color="#D67B44"/>
</radialGradient>
<linearGradient id="paint2_linear_18_1305" x1="19.8118" y1="26.0216" x2="24.2371" y2="20.9189" gradientUnits="userSpaceOnUse">
<stop stop-color="#F69C3E"/>
<stop offset="1" stop-color="#F69C3E" stop-opacity="0"/>
</linearGradient>
<linearGradient id="paint3_linear_18_1305" x1="26.1788" y1="20.2416" x2="24.6435" y2="21.9575" gradientUnits="userSpaceOnUse">
<stop offset="0.0676922" stop-color="#FFFF5D"/>
<stop offset="1" stop-color="#FFE151" stop-opacity="0"/>
</linearGradient>
<linearGradient id="paint4_linear_18_1305" x1="17.8249" y1="18.2773" x2="18.8861" y2="19.203" gradientUnits="userSpaceOnUse">
<stop stop-color="#F79E36"/>
<stop offset="1" stop-color="#F79E36" stop-opacity="0"/>
</linearGradient>
<radialGradient id="paint5_radial_18_1305" cx="0" cy="0" r="1" gradientUnits="userSpaceOnUse" gradientTransform="translate(16.425 7.14628) rotate(112.81) scale(10.4833 9.59074)">
<stop offset="0.356687" stop-color="#EFBC2A"/>
<stop offset="1" stop-color="#AD9347"/>
</radialGradient>
<linearGradient id="paint6_linear_18_1305" x1="16.6508" y1="2.85643" x2="12.6319" y2="5.34003" gradientUnits="userSpaceOnUse">
<stop stop-color="#FFDC38"/>
<stop offset="1" stop-color="#FFDC38" stop-opacity="0"/>
</linearGradient>
<linearGradient id="paint7_linear_18_1305" x1="14.3704" y1="13.5811" x2="12.8125" y2="12.3393" gradientUnits="userSpaceOnUse">
<stop stop-color="#C6942E"/>
<stop offset="0.379637" stop-color="#C6942E" stop-opacity="0.796369"/>
<stop offset="1" stop-color="#C6942E" stop-opacity="0"/>
</linearGradient>
<radialGradient id="paint8_radial_18_1305" cx="0" cy="0" r="1" gradientUnits="userSpaceOnUse" gradientTransform="translate(14.0769 4.88846) rotate(-127.154) scale(3.73836 5.39913)">
<stop stop-color="#FFC42B"/>
<stop offset="1" stop-color="#FFC42B" stop-opacity="0"/>
</radialGradient>
<radialGradient id="paint9_radial_18_1305" cx="0" cy="0" r="1" gradientUnits="userSpaceOnUse" gradientTransform="translate(24.0625 8.60034) rotate(106.407) scale(11.7275 7.23391)">
<stop stop-color="#FFFF68"/>
<stop offset="1" stop-color="#FFFF68" stop-opacity="0"/>
</radialGradient>
<linearGradient id="paint10_linear_18_1305" x1="2.37835" y1="30.0911" x2="6.12035" y2="26.6637" gradientUnits="userSpaceOnUse">
<stop stop-color="#EAA138"/>
<stop offset="1" stop-color="#EAA138" stop-opacity="0"/>
</linearGradient>
<radialGradient id="paint11_radial_18_1305" cx="0" cy="0" r="1" gradientUnits="userSpaceOnUse" gradientTransform="translate(15.8958 2.13921) rotate(19.8407) scale(4.68118 3.80332)">
<stop offset="0.149614" stop-color="#FED235"/>
<stop offset="1" stop-color="#FED235" stop-opacity="0"/>
</radialGradient>
<radialGradient id="paint12_radial_18_1305" cx="0" cy="0" r="1" gradientUnits="userSpaceOnUse" gradientTransform="translate(19.3516 5.60425) rotate(-67.4161) scale(1.91226 1.51137)">
<stop offset="0.576416" stop-color="#BD952C"/>
<stop offset="1" stop-color="#BD952C" stop-opacity="0"/>
</radialGradient>
<radialGradient id="paint13_radial_18_1305" cx="0" cy="0" r="1" gradientUnits="userSpaceOnUse" gradientTransform="translate(11.5156 3.55737) rotate(32.1787) scale(6.57202 7.92358)">
<stop stop-color="#FFFC58"/>
<stop offset="1" stop-color="#FFFC58" stop-opacity="0"/>
</radialGradient>
<linearGradient id="paint14_linear_18_1305" x1="20.5469" y1="6.05737" x2="17.7684" y2="2.52612" gradientUnits="userSpaceOnUse">
<stop stop-color="#C19C31"/>
<stop offset="1" stop-color="#C19C31" stop-opacity="0"/>
</linearGradient>
</defs>
</svg>

<svg width="32" height="32" fill="none" xmlns="http://www.w3.org/2000/svg"><g filter="url(#a)"><path d="M19.235 8.23c-2.413-.85-5.516-.355-6.766 0-.276-.1-.853-.491-.953-1.266-.125-.97-.766-4.125 4.39-4.297 4.126-.138 5.521 2.047 5.704 3.156l-2.375 2.406Z" fill="url(#b)"/><path d="M19.235 8.23c-2.413-.85-5.516-.355-6.766 0-.276-.1-.853-.491-.953-1.266-.125-.97-.766-4.125 4.39-4.297 4.126-.138 5.521 2.047 5.704 3.156l-2.375 2.406Z" fill="url(#c)"/></g><g filter="url(#d)"><path d="M19.498 14.505c2.962 2.803 6.904 6.485 10.392 9.585a.498.498 0 0 1 .04.705 185.435 185.435 0 0 1-4.715 5.106.492.492 0 0 1-.686.026c-2.985-2.697-7.069-6.812-10.447-10.307l5.416-5.115Z" fill="#FFC444"/><path d="M19.498 14.505c2.962 2.803 6.904 6.485 10.392 9.585a.498.498 0 0 1 .04.705 185.435 185.435 0 0 1-4.715 5.106.492.492 0 0 1-.686.026c-2.985-2.697-7.069-6.812-10.447-10.307l5.416-5.115Z" fill="url(#e)"/></g><path d="M19.498 14.505c2.962 2.803 6.904 6.485 10.392 9.585a.498.498 0 0 1 .04.705 185.435 185.435 0 0 1-4.715 5.106.492.492 0 0 1-.686.026c-2.985-2.697-7.069-6.812-10.447-10.307l5.416-5.115Z" fill="url(#f)"/><path d="M19.498 14.505c2.962 2.803 6.904 6.485 10.392 9.585a.498.498 0 0 1 .04.705 185.435 185.435 0 0 1-4.715 5.106.492.492 0 0 1-.686.026c-2.985-2.697-7.069-6.812-10.447-10.307l5.416-5.115Z" fill="url(#g)"/><path d="M18.483 13.543c-2.135-2.03-3.555-3.403-3.555-3.403-1.2-1.175-3.319-3.395-3.038-4.895.412-2.2 3.013-2.188 4.223-2.182h.16V1.91c-1.96 0-3.632.283-5.518 1.657-3.075 2.24-5.202 7.058-.552 11.992.852.904 1.89 1.995 3.034 3.186 1.738-1.725 3.546-3.518 5.246-5.201Z" fill="url(#h)"/><path d="M18.483 13.543c-2.135-2.03-3.555-3.403-3.555-3.403-1.2-1.175-3.319-3.395-3.038-4.895.412-2.2 3.013-2.188 4.223-2.182h.16V1.91c-1.96 0-3.632.283-5.518 1.657-3.075 2.24-5.202 7.058-.552 11.992.852.904 1.89 1.995 3.034 3.186 1.738-1.725 3.546-3.518 5.246-5.201Z" fill="url(#i)"/><path d="M18.483 13.543c-2.135-2.03-3.555-3.403-3.555-3.403-1.2-1.175-3.319-3.395-3.038-4.895.412-2.2 3.013-2.188 4.223-2.182h.16V1.91c-1.96 0-3.632.283-5.518 1.657-3.075 2.24-5.202 7.058-.552 11.992.852.904 1.89 1.995 3.034 3.186 1.738-1.725 3.546-3.518 5.246-5.201Z" fill="url(#j)"/><path d="M18.483 13.543c-2.135-2.03-3.555-3.403-3.555-3.403-1.2-1.175-3.319-3.395-3.038-4.895.412-2.2 3.013-2.188 4.223-2.182h.16V1.91c-1.96 0-3.632.283-5.518 1.657-3.075 2.24-5.202 7.058-.552 11.992.852.904 1.89 1.995 3.034 3.186 1.738-1.725 3.546-3.518 5.246-5.201Z" fill="url(#k)"/><g filter="url(#l)"><path d="M16.93 10.064 1.99 23.816a.5.5 0 0 0-.034.702l4.663 5.186a.5.5 0 0 0 .72.024c4.038-3.925 10.924-10.516 14.488-14.174 4.63-4.75 2.524-9.752-.551-11.992-1.887-1.373-3.38-1.653-5.002-1.653v1.15c1.122 0 3.818.54 4.14 2.085.302 1.445-2.283 3.744-3.482 4.92Z" fill="#FFD24B"/><path d="M16.93 10.064 1.99 23.816a.5.5 0 0 0-.034.702l4.663 5.186a.5.5 0 0 0 .72.024c4.038-3.925 10.924-10.516 14.488-14.174 4.63-4.75 2.524-9.752-.551-11.992-1.887-1.373-3.38-1.653-5.002-1.653v1.15c1.122 0 3.818.54 4.14 2.085.302 1.445-2.283 3.744-3.482 4.92Z" fill="url(#m)"/><path d="M16.93 10.064 1.99 23.816a.5.5 0 0 0-.034.702l4.663 5.186a.5.5 0 0 0 .72.024c4.038-3.925 10.924-10.516 14.488-14.174 4.63-4.75 2.524-9.752-.551-11.992-1.887-1.373-3.38-1.653-5.002-1.653v1.15c1.122 0 3.818.54 4.14 2.085.302 1.445-2.283 3.744-3.482 4.92Z" fill="url(#n)"/></g><path d="M16.93 10.064 1.99 23.816a.5.5 0 0 0-.034.702l4.663 5.186a.5.5 0 0 0 .72.024c4.038-3.925 10.924-10.516 14.488-14.174 4.63-4.75 2.524-9.752-.551-11.992-1.887-1.373-3.38-1.653-5.002-1.653v1.15c1.122 0 3.818.54 4.14 2.085.302 1.445-2.283 3.744-3.482 4.92Z" fill="url(#o)"/><path d="M16.93 10.064 1.99 23.816a.5.5 0 0 0-.034.702l4.663 5.186a.5.5 0 0 0 .72.024c4.038-3.925 10.924-10.516 14.488-14.174 4.63-4.75 2.524-9.752-.551-11.992-1.887-1.373-3.38-1.653-5.002-1.653v1.15c1.122 0 3.818.54 4.14 2.085.302 1.445-2.283 3.744-3.482 4.92Z" fill="url(#p)"/><g filter="url(#q)"><path d="M16.656 2.635c-1-.156-4.001.052-4.882 1.328-1.09 1.577-.52 3.341 1.897 5.892" stroke="url(#r)" stroke-width=".5" stroke-linecap="round"/></g><g filter="url(#s)"><path d="M20.82 3.932c-.789-.972-2.276-1.377-2.813-1.486l-.239.635c.488.106 1.662.467 2.294 1.164.984 1.084.067 2.559-.414 3.172 1.235-1.07 1.982-2.487 1.172-3.485Z" fill="url(#t)"/></g><defs><radialGradient id="b" cx="0" cy="0" r="1" gradientUnits="userSpaceOnUse" gradientTransform="matrix(8.61341 .04516 -.023 4.38885 11.424 6.65)"><stop stop-color="#FAAE36"/><stop offset="1" stop-color="#CF7C39"/></radialGradient><radialGradient id="c" cx="0" cy="0" r="1" gradientUnits="userSpaceOnUse" gradientTransform="matrix(0 -5.55422 9.43767 0 16.2 8.636)"><stop offset=".801" stop-color="#D67B44" stop-opacity="0"/><stop offset="1" stop-color="#D67B44"/></radialGradient><radialGradient id="h" cx="0" cy="0" r="1" gradientUnits="userSpaceOnUse" gradientTransform="rotate(112.81 5.839 9.028) scale(10.4833 9.59074)"><stop offset=".357" stop-color="#EFBC2A"/><stop offset="1" stop-color="#AD9347"/></radialGradient><radialGradient id="k" cx="0" cy="0" r="1" gradientUnits="userSpaceOnUse" gradientTransform="matrix(-2.25782 -2.97953 4.30319 -3.26086 14.077 4.888)"><stop stop-color="#FFC42B"/><stop offset="1" stop-color="#FFC42B" stop-opacity="0"/></radialGradient><radialGradient id="m" cx="0" cy="0" r="1" gradientUnits="userSpaceOnUse" gradientTransform="matrix(-3.31253 11.24995 -6.93934 -2.04328 24.063 8.6)"><stop stop-color="#FFFF68"/><stop offset="1" stop-color="#FFFF68" stop-opacity="0"/></radialGradient><radialGradient id="o" cx="0" cy="0" r="1" gradientUnits="userSpaceOnUse" gradientTransform="rotate(19.841 1.832 46.514) scale(4.68118 3.80332)"><stop offset=".15" stop-color="#FED235"/><stop offset="1" stop-color="#FED235" stop-opacity="0"/></radialGradient><radialGradient id="p" cx="0" cy="0" r="1" gradientUnits="userSpaceOnUse" gradientTransform="matrix(.73438 -1.76562 1.39548 .58042 19.352 5.604)"><stop offset=".576" stop-color="#BD952C"/><stop offset="1" stop-color="#BD952C" stop-opacity="0"/></radialGradient><radialGradient id="r" cx="0" cy="0" r="1" gradientUnits="userSpaceOnUse" gradientTransform="matrix(5.5625 3.5 -4.2198 6.70645 11.516 3.557)"><stop stop-color="#FFFC58"/><stop offset="1" stop-color="#FFFC58" stop-opacity="0"/></radialGradient><linearGradient id="e" x1="19.812" y1="26.022" x2="24.237" y2="20.919" gradientUnits="userSpaceOnUse"><stop stop-color="#F69C3E"/><stop offset="1" stop-color="#F69C3E" stop-opacity="0"/></linearGradient><linearGradient id="f" x1="26.179" y1="20.242" x2="24.643" y2="21.957" gradientUnits="userSpaceOnUse"><stop offset=".068" stop-color="#FFFF5D"/><stop offset="1" stop-color="#FFE151" stop-opacity="0"/></linearGradient><linearGradient id="g" x1="17.825" y1="18.277" x2="18.886" y2="19.203" gradientUnits="userSpaceOnUse"><stop stop-color="#F79E36"/><stop offset="1" stop-color="#F79E36" stop-opacity="0"/></linearGradient><linearGradient id="i" x1="16.651" y1="2.856" x2="12.632" y2="5.34" gradientUnits="userSpaceOnUse"><stop stop-color="#FFDC38"/><stop offset="1" stop-color="#FFDC38" stop-opacity="0"/></linearGradient><linearGradient id="j" x1="14.37" y1="13.581" x2="12.813" y2="12.339" gradientUnits="userSpaceOnUse"><stop stop-color="#C6942E"/><stop offset=".38" stop-color="#C6942E" stop-opacity=".796"/><stop offset="1" stop-color="#C6942E" stop-opacity="0"/></linearGradient><linearGradient id="n" x1="2.378" y1="30.091" x2="6.12" y2="26.664" gradientUnits="userSpaceOnUse"><stop stop-color="#EAA138"/><stop offset="1" stop-color="#EAA138" stop-opacity="0"/></linearGradient><linearGradient id="t" x1="20.547" y1="6.057" x2="17.768" y2="2.526" gradientUnits="userSpaceOnUse"><stop stop-color="#C19C31"/><stop offset="1" stop-color="#C19C31" stop-opacity="0"/></linearGradient><filter id="a" x="11.424" y="2.511" width="10.186" height="5.719" filterUnits="userSpaceOnUse" color-interpolation-filters="sRGB"><feFlood flood-opacity="0" result="BackgroundImageFix"/><feBlend in="SourceGraphic" in2="BackgroundImageFix" result="shape"/><feColorMatrix in="SourceAlpha" values="0 0 0 0 0 0 0 0 0 0 0 0 0 0 0 0 0 0 127 0" result="hardAlpha"/><feOffset dy="-.15"/><feGaussianBlur stdDeviation=".125"/><feComposite in2="hardAlpha" operator="arithmetic" k2="-1" k3="1"/><feColorMatrix values="0 0 0 0 0.847059 0 0 0 0 0.52549 0 0 0 0 0.4 0 0 0 1 0"/><feBlend in2="shape" result="effect1_innerShadow_18_1305"/></filter><filter id="d" x="14.082" y="14.505" width="16.375" height="15.649" filterUnits="userSpaceOnUse" color-interpolation-filters="sRGB"><feFlood flood-opacity="0" result="BackgroundImageFix"/><feBlend in="SourceGraphic" in2="BackgroundImageFix" result="shape"/><feColorMatrix in="SourceAlpha" values="0 0 0 0 0 0 0 0 0 0 0 0 0 0 0 0 0 0 127 0" result="hardAlpha"/><feOffset dx=".4" dy=".1"/><feGaussianBlur stdDeviation=".375"/><feComposite in2="hardAlpha" operator="arithmetic" k2="-1" k3="1"/><feColorMatrix values="0 0 0 0 0.898039 0 0 0 0 0.521569 0 0 0 0 0.352941 0 0 0 1 0"/><feBlend in2="shape" result="effect1_innerShadow_18_1305"/></filter><filter id="l" x="1.827" y="1.709" width="22.895" height="28.161" filterUnits="userSpaceOnUse" color-interpolation-filters="sRGB"><feFlood flood-opacity="0" result="BackgroundImageFix"/><feBlend in="SourceGraphic" in2="BackgroundImageFix" result="shape"/><feColorMatrix in="SourceAlpha" values="0 0 0 0 0 0 0 0 0 0 0 0 0 0 0 0 0 0 127 0" result="hardAlpha"/><feOffset dx=".2" dy="-.2"/><feGaussianBlur stdDeviation=".25"/><feComposite in2="hardAlpha" operator="arithmetic" k2="-1" k3="1"/><feColorMatrix values="0 0 0 0 0.866667 0 0 0 0 0.517647 0 0 0 0 0.309804 0 0 0 1 0"/><feBlend in2="shape" result="effect1_innerShadow_18_1305"/></filter><filter id="q" x="10.494" y="1.841" width="6.912" height="8.765" filterUnits="userSpaceOnUse" color-interpolation-filters="sRGB"><feFlood flood-opacity="0" result="BackgroundImageFix"/><feBlend in="SourceGraphic" in2="BackgroundImageFix" result="shape"/><feGaussianBlur stdDeviation=".25" result="effect1_foregroundBlur_18_1305"/></filter><filter id="s" x="17.468" y="2.146" width="3.99" height="5.571" filterUnits="userSpaceOnUse" color-interpolation-filters="sRGB"><feFlood flood-opacity="0" result="BackgroundImageFix"/><feBlend in="SourceGraphic" in2="BackgroundImageFix" result="shape"/><feGaussianBlur stdDeviation=".15" result="effect1_foregroundBlur_18_1305"/></filter></defs></svg>
